logos/open-sf.svg

<svg xmlns="http://www.w3.org/2000/svg" viewBox="0 0 1000 1054">
  <path d="m498.957 1044.992c-159.419-189.321-320.674-391.616-433.516-612.963-48.53-95.196-93.828-224.238-43.354-327.706 56.953-116.752 206.245-125.239 309.448-74.306 111.289 54.921 231.762 144.683 302.783 247.544 75.722 109.663 122.944 261.748 58.032 387.554-58.52 113.408-206.011 169.355-313.813 85.264-103.311-80.586-132.403-230.356-91.456-350.088 19.956-58.35 54.492-110.767 97.989-154.219 4.468-4.468 58.334-49.17 58.334-49.17s12.705 17.939 18.799 26.792c-95.225 70.615-174.624 182.72-150.122 306.84 22.954 116.27 145.361 190.528 258.125 143.433 117.383-49.019 128.081-197.549 81.352-300.391-53.427-117.578-150.019-193.11-253.495-264.678-84.463-58.413-190.195-112.084-287.959-49.497-102.402 65.552-83.765 200.763-42.681 299.038 88.203 210.981 243.325 400.538 384.805 577.379 17.827 22.28 34.922 45.986 54.365 66.89-1.299-1.396 230.498-305.289 251.597-336.241 65.903-96.68 132.095-197.09 176.895-305.689 43.691-105.908 57.138-245.049-59.078-306.934-50.381-26.831-105.312-27.222-157.793-5.796-34.561 14.111-65.806 35.449-95.132 58.286-7.275 5.669-46.748 36.167-46.748 36.167s-18.647-25.645-18.892-26.373c-1.382-4.15 59.419-46.47 64.526-50.181 28.515-20.728 58.901-39.321 92.07-51.621 70.92-26.306 144.655-16.096 205.808 28.239 107.807 78.169 90.083 225.181 44.106 334.639-49.502 117.833-122.105 226.499-194.536 331.172-81.475 117.734-175.312 232.623-261.553 346.088-3.555-2.538-8.906-9.472-8.906-9.472s6.567 7.798 0 0z"/>
</svg>

<svg xmlns="http://www.w3.org/2000/svg" viewBox="0 0 1000 1054">
<path d="M498.957,1044.992C339.538,855.671,178.283,653.376,65.441,432.029
	c-48.53-95.196-93.828-224.238-43.354-327.706C79.04-12.429,228.332-20.916,331.535,30.017
	C442.824,84.938,563.297,174.7,634.318,277.561c75.722,109.663,122.944,261.748,58.032,387.554
	c-58.52,113.408-206.011,169.355-313.813,85.264c-103.311-80.586-132.403-230.356-91.456-350.088
	c19.956-58.35,54.492-110.767,97.989-154.219c4.468-4.468,58.334-49.17,58.334-49.17s12.705,17.939,18.799,26.792
	c-95.225,70.615-174.624,182.72-150.122,306.84c22.954,116.27,145.361,190.528,258.125,143.433
	c117.383-49.019,128.081-197.549,81.352-300.391c-53.427-117.578-150.019-193.11-253.495-264.678
	C313.6,50.485,207.868-3.186,110.104,59.401C7.702,124.953,26.339,260.164,67.423,358.439
	c88.203,210.981,243.325,400.538,384.805,577.379c17.827,22.28,34.922,45.986,54.365,66.89
	c-1.299-1.396,230.498-305.289,251.597-336.241c65.903-96.68,132.095-197.09,176.895-305.689
	c43.691-105.908,57.138-245.049-59.078-306.934c-50.381-26.831-105.312-27.222-157.793-5.796
	c-34.561,14.111-65.806,35.449-95.132,58.286c-7.275,5.669-46.748,36.167-46.748,36.167s-18.647-25.645-18.892-26.373
	c-1.382-4.15,59.419-46.47,64.526-50.181c28.515-20.728,58.901-39.321,92.07-51.621C784.958-11.98,858.693-1.77,919.846,42.565
	c107.807,78.169,90.083,225.181,44.106,334.639C914.45,495.037,841.847,603.703,769.416,708.376
	c-81.475,117.734-175.312,232.623-261.553,346.088C504.308,1051.926,498.957,1044.992,498.957,1044.992
	S505.524,1052.79,498.957,1044.992z"/>
</svg>
